packages/core/src/svgs/woof.svg

<svg width="24" height="24" viewBox="0 0 24 24" fill="none" xmlns="http://www.w3.org/2000/svg">
<g clip-path="url(#clip0_31_20803)">
<path d="M0 0H24V24H0V0Z" fill="url(#paint0_linear_31_20803)"/>
<path fill-rule="evenodd" clip-rule="evenodd" d="M18.8574 12.0001C18.8574 13.8187 18.1349 15.5628 16.849 16.8488C15.563 18.1348 13.8189 18.8572 12.0002 18.8572H11.9659C11.8417 17.6144 11.3874 16.6544 11.1431 16.2858L11.3574 15.0001L12.0002 14.1429V13.5001L12.8574 12.2144L12.6431 12.0001L12.4288 12.2144L12.6431 11.5715V10.9287C12.6431 10.4144 11.9274 9.99865 11.5717 9.85722L9.64308 11.3572C9.35594 11.2844 8.44308 11.3572 7.07165 12.2144C6.35165 12.6644 5.99594 13.8001 5.83737 15.0087C5.38508 14.0816 5.14778 13.0644 5.14315 12.0328C5.13852 11.0013 5.36668 9.98202 5.81063 9.0509C6.25459 8.11978 6.90289 7.30082 7.70726 6.65501C8.51164 6.00921 9.45135 5.55321 10.4564 5.32096C11.4615 5.08872 12.506 5.08623 13.5121 5.31367C14.5183 5.54111 15.4602 5.99262 16.2676 6.63457C17.075 7.27653 17.7273 8.09238 18.1757 9.02137C18.624 9.95036 18.8571 10.9685 18.8574 12.0001ZM5.76451 15.7715C4.93103 14.3939 4.57738 12.779 4.75882 11.1791C4.94026 9.5792 5.64657 8.08448 6.76739 6.92849C7.88821 5.7725 9.36039 5.02036 10.9539 4.78959C12.5474 4.55881 14.1725 4.86241 15.5752 5.65294C16.9779 6.44348 18.0792 7.67641 18.7071 9.15909C19.335 10.6418 19.454 12.2907 19.0456 13.8481C18.6371 15.4056 17.7243 16.7839 16.4496 17.7677C15.175 18.7515 13.6104 19.2853 12.0002 19.2858C11.3962 19.2852 10.7945 19.2104 10.2088 19.0629C8.35224 18.5902 6.75598 17.4065 5.76451 15.7672V15.7715ZM8.25023 16.5001C7.3588 15.8101 7.39737 14.4301 7.9288 13.5001C7.71451 14.1429 7.45737 15.0601 8.05737 15.9901C8.08737 15.7672 8.1388 15.4458 8.21594 15.0987C8.34451 14.5372 8.58023 13.9201 9.00023 13.5001C8.68308 13.8172 8.58022 14.3615 8.48594 14.8329L8.42594 15.1458C8.37451 15.3772 8.30594 15.9772 8.27165 16.2944L8.25023 16.5001ZM15.4288 11.5715C16.8474 11.5715 18.0002 10.7101 18.0002 9.64294C18.0002 8.57579 16.8474 7.71437 15.4288 7.71437C14.0102 7.71437 12.8574 8.57579 12.8574 9.64294C12.8574 10.0415 13.0159 10.4101 13.2945 10.7144H13.2859L13.0717 11.7858L14.0745 11.2844C14.4688 11.4644 14.9317 11.5715 15.4288 11.5715ZM17.0059 9.64294H17.1431V9.42865H17.0059V9.42008C17.0145 9.34722 17.0188 9.27008 17.1045 9.27008H17.1431V9.00008H17.0831C16.9631 9.00008 16.8688 9.03008 16.8002 9.09437C16.7359 9.15437 16.7145 9.25294 16.7145 9.36865V9.42865H16.6117V9.64294H16.7145V10.2858H17.0059V9.64294ZM14.0831 10.2858H14.4217L14.6402 9.42865H14.3574L14.2631 9.97294L14.1345 9.42865H13.8088L13.6802 9.96865L13.5859 9.42865H13.2859L13.5002 10.2858H13.8431L13.9631 9.72865L14.0831 10.2858ZM14.6788 9.85722C14.6788 10.1187 14.8588 10.2858 15.1288 10.2858C15.3945 10.2858 15.5788 10.1187 15.5788 9.85722C15.5788 9.60008 15.3945 9.42865 15.1288 9.42865C14.8631 9.42865 14.6788 9.60008 14.6788 9.85722ZM15.2745 9.85722C15.2745 9.97722 15.2145 10.0715 15.1288 10.0715C15.0431 10.0715 14.9831 9.98579 14.9831 9.85722C14.9831 9.73294 15.0474 9.64294 15.1288 9.64294C15.2102 9.64294 15.2745 9.73722 15.2745 9.85722ZM16.1017 10.2858C15.8359 10.2858 15.6517 10.1187 15.6517 9.85722C15.6517 9.60008 15.8402 9.42865 16.1059 9.42865C16.3674 9.42865 16.5559 9.60008 16.5559 9.85722C16.5559 10.1187 16.3674 10.2858 16.1017 10.2858ZM16.1017 10.0715C16.1874 10.0715 16.2517 9.97722 16.2517 9.85722C16.2517 9.73722 16.1874 9.64294 16.1059 9.64294C16.0202 9.64294 15.9602 9.73294 15.9602 9.85722C15.9602 9.98579 16.0202 10.0715 16.1017 10.0715Z" fill="url(#paint1_linear_31_20803)"/>
</g>
<defs>
<linearGradient id="paint0_linear_31_20803" x1="4.46571" y1="4.16143" x2="29.2071" y2="32.58" gradientUnits="userSpaceOnUse">
<stop stop-color="#1A1E21"/>
<stop offset="1" stop-color="#06060A"/>
</linearGradient>
<linearGradient id="paint1_linear_31_20803" x1="16.0717" y1="6.21437" x2="7.28594" y2="17.5715" gradientUnits="userSpaceOnUse">
<stop stop-color="#1FDEB1"/>
<stop offset="0.47" stop-color="#6A91D0"/>
<stop offset="1" stop-color="#C13AF3"/>
</linearGradient>
<clipPath id="clip0_31_20803">
<rect width="24" height="24" fill="white"/>
</clipPath>
</defs>
</svg>

<svg xmlns="http://www.w3.org/2000/svg" width="24" height="24" fill="none" viewBox="0 0 24 24"><g clip-path="url(#a)"><path fill="url(#b)" d="M0 0h24v24H0z"/><path fill="url(#c)" fill-rule="evenodd" d="M18.857 12A6.857 6.857 0 0 1 12 18.857h-.034c-.124-1.243-.579-2.203-.823-2.571L11.357 15l.643-.857V13.5l.857-1.286-.214-.214-.214.214.214-.643v-.642c0-.515-.716-.93-1.071-1.072l-1.929 1.5c-.287-.073-1.2 0-2.571.857-.72.45-1.076 1.586-1.235 2.795A6.857 6.857 0 1 1 18.857 12M5.765 15.771A7.286 7.286 0 1 1 18.23 8.238a7.286 7.286 0 0 1-12.466 7.53zm2.485.73c-.891-.69-.853-2.07-.321-3-.214.642-.472 1.56.128 2.49.03-.224.082-.545.159-.892.129-.562.364-1.179.784-1.599-.317.317-.42.861-.514 1.333l-.06.313c-.051.231-.12.831-.154 1.148zm7.179-4.93c1.418 0 2.571-.86 2.571-1.928 0-1.067-1.153-1.929-2.571-1.929s-2.572.862-2.572 1.929c0 .398.159.767.438 1.071h-.01l-.213 1.072 1.003-.502c.394.18.857.287 1.354.287m1.577-1.928h.137v-.214h-.137V9.42c.009-.073.013-.15.099-.15h.038V9h-.06q-.18-.001-.283.094c-.064.06-.085.159-.085.275v.06h-.103v.214h.103v.643h.29zm-2.923.643h.339l.218-.857h-.283l-.094.544-.129-.544h-.325l-.129.54-.094-.54h-.3l.214.857h.343l.12-.557zm.596-.429c0 .262.18.429.45.429.266 0 .45-.167.45-.429 0-.257-.184-.428-.45-.428s-.45.171-.45.428m.595 0c0 .12-.06.215-.145.215-.086 0-.146-.086-.146-.215 0-.124.064-.214.146-.214s.146.094.146.214m.828.429c-.266 0-.45-.167-.45-.429 0-.257.188-.428.454-.428.261 0 .45.171.45.428 0 .262-.189.429-.454.429m0-.214c.085 0 .15-.095.15-.215s-.065-.214-.146-.214c-.086 0-.146.09-.146.214 0 .129.06.215.142.215" clip-rule="evenodd"/></g><defs><linearGradient id="b" x1="4.466" x2="29.207" y1="4.161" y2="32.58" gradientUnits="userSpaceOnUse"><stop stop-color="#1A1E21"/><stop offset="1" stop-color="#06060A"/></linearGradient><linearGradient id="c" x1="16.072" x2="7.286" y1="6.214" y2="17.572" gradientUnits="userSpaceOnUse"><stop stop-color="#1FDEB1"/><stop offset=".47" stop-color="#6A91D0"/><stop offset="1" stop-color="#C13AF3"/></linearGradient><clipPath id="a"><path fill="#fff" d="M0 0h24v24H0z"/></clipPath></defs></svg>
